X:730
T:Maguire's kick
T:McGuire's
T:The rolling waves
R:Single Jig
O:Ireland
D:James Kelly- Capel Street
B:O'Neill's 1071
S:My arrangement from various sources
Z:Transcription, arrangement, chords:Mike Long
M:6/8
L:1/8
K:D
AG|:\
"D"F2E "A"EDE|"D"F2D DCD|"D"F2E "A"EFA|"G"d2e fdA|\
"D"F2E "A"EDE|"D"F2D DCD|"D"AFE "A"EFA|"G"B3 d2A:|
|:"D"ABd "A"e2f|"G"d2B A2F|"D"ABd "A"e2f|"G"d2c B2A|\
"D"ABd "A"ede|"G"fdB BAF|"D"AFE "A"EFA|[1 "G"d2e fdB:|[2 "G"d2e fdA|]
